X: 4192
T: SMASH THE WINDOWS
R: Jig
%R: jig
B: James Kerr "Merry Melodies" v.4 p.22 #192
Z: 2016 John Chambers <jc:trillian.mit.edu>
M: 6/8
L: 1/8
K: D
uF |\
D3 F2A | d2f ecA | G2B F2A | E2F GFE |\
D3 F2A | d2f ecA | Bgf edc | d3- d2 :|
|: f |\
a2f d2f | A2a agf | g2e c2e | A2g gfe |\
f2d g2e | a2f b2g | fed ABc | d3- d2 :|

%%sep 1 1 500
%%sep 1 1 500

